svgs/sharp-regular/battery-exclamation.svg

<svg xmlns="http://www.w3.org/2000/svg" viewBox="0 0 576 512"><!--! Font Awesome Pro 6.6.0 by @fontawesome - https://fontawesome.com License - https://fontawesome.com/license (Commercial License) Copyright 2024 Fonticons, Inc. --><path d="M48 96L0 96l0 48L0 368l0 48 48 0 160 0 0-48L48 368l0-224 160 0 0-48L48 96zM496 368l-160 0 0 48 160 0 48 0 0-48 0-48 32 0 0-128-32 0 0-48 0-48-48 0L336 96l0 48 160 0 0 224zM296 96l-48 0 0 24 0 192 0 24 48 0 0-24 0-192 0-24zM248 368l0 48 48 0 0-48-48 0z"/></svg>

<svg xmlns="http://www.w3.org/2000/svg" viewBox="0 0 576 512"><!--! Font Awesome Pro 6.4.2 by @fontawesome - https://fontawesome.com License - https://fontawesome.com/license (Commercial License) Copyright 2023 Fonticons, Inc. --><path d="M48 96H0v48V368v48H48 208V368H48V144H208V96H48zM496 368H336v48H496h48V368 320h32V192H544V144 96H496 336v48H496V368zM296 96H248v24V312v24h48V312 120 96zM248 368v48h48V368H248z"/></svg>
